src/assets/icons/express.svg

<svg width="101" height="100" viewBox="0 0 101 100" fill="none" xmlns="http://www.w3.org/2000/svg">
<g id="express-svgrepo-com 1" clip-path="url(#clip0_144_454)">
<g id="Group">
<path id="Vector" d="M1.15083 58.033V46.9038H15.046V46.253H1.15083V36.1H15.9247V35.4492H0.5V58.6838H16.0548V58.033H1.15083ZM28.5833 41.9575L22.8235 49.5397L17.1938 41.9575H16.3477L22.433 50.0278L15.762 58.6838H16.543L22.8235 50.5159L29.1365 58.6838H29.9501L23.2465 50.0278L29.3643 41.9575H28.5833ZM31.9025 64.4111V53.9979H31.9676C32.3581 55.5165 33.1283 56.7368 34.2781 57.6588C35.4279 58.5808 36.8922 59.0418 38.6712 59.0418C39.821 59.0418 40.8406 58.8086 41.7301 58.3422C42.6195 57.8757 43.3626 57.2412 43.9592 56.4385C44.5558 55.6358 45.0113 54.7029 45.3259 53.6399C45.6405 52.5769 45.7978 51.4596 45.7978 50.2881C45.7978 49.0299 45.6351 47.8692 45.3096 46.8062C44.9842 45.7432 44.5124 44.8212 43.8941 44.0402C43.2758 43.2592 42.5273 42.6517 41.6487 42.2178C40.7701 41.784 39.7776 41.567 38.6712 41.567C37.8251 41.567 37.0387 41.6918 36.3119 41.9412C35.5851 42.1907 34.9397 42.5433 34.3757 42.9988C33.8116 43.4544 33.3235 43.9914 32.9113 44.6096C32.4991 45.2279 32.1846 45.9059 31.9676 46.6435H31.9025V41.9575H31.2517V64.4111H31.9025ZM38.6712 58.4235C36.6319 58.4235 34.994 57.7239 33.7574 56.3246C32.5208 54.9253 31.9025 52.9132 31.9025 50.2881C31.9025 49.2034 32.0544 48.1729 32.3581 47.1967C32.6618 46.2204 33.1011 45.3635 33.676 44.6259C34.251 43.8883 34.9614 43.3026 35.8075 42.8687C36.6536 42.4348 37.6081 42.2178 38.6712 42.2178C39.7559 42.2178 40.705 42.4348 41.5185 42.8687C42.3321 43.3026 43.0046 43.8937 43.5361 44.6422C44.0676 45.3906 44.469 46.2476 44.7402 47.213C45.0113 48.1784 45.1469 49.2034 45.1469 50.2881C45.1469 51.2644 45.0222 52.2352 44.7727 53.2006C44.5232 54.166 44.1381 55.0338 43.6175 55.8039C43.0968 56.5741 42.4297 57.2032 41.6162 57.6913C40.8026 58.1795 39.821 58.4235 38.6712 58.4235ZM49.3773 58.6838V49.2143C49.3773 48.3031 49.5075 47.4136 49.7678 46.5459C50.0281 45.6781 50.4295 44.9134 50.9719 44.2517C51.5142 43.59 52.203 43.0694 53.0382 42.6897C53.8735 42.31 54.866 42.1528 56.0158 42.2178V41.567C55.0178 41.5453 54.1446 41.6538 53.3962 41.8924C52.6477 42.1311 52.0023 42.4565 51.46 42.8687C50.9176 43.2809 50.4837 43.7636 50.1583 44.3168C49.8329 44.87 49.5943 45.4611 49.4424 46.0903H49.3773V41.9575H48.7265V58.6838H49.3773ZM56.8293 50.4508H70.8222C70.8655 49.301 70.7517 48.1946 70.4805 47.1316C70.2093 46.0686 69.7754 45.1249 69.1788 44.3005C68.5822 43.4761 67.8121 42.8144 66.8684 42.3155C65.9247 41.8165 64.802 41.567 63.5003 41.567C62.5675 41.567 61.6563 41.7623 60.7668 42.1528C59.8774 42.5433 59.0964 43.1127 58.4239 43.8612C57.7513 44.6097 57.209 45.5262 56.7968 46.6109C56.3846 47.6957 56.1785 48.9322 56.1785 50.3207C56.1785 51.5573 56.3195 52.7125 56.6015 53.7864C56.8836 54.8602 57.3174 55.7931 57.9032 56.5849C58.4889 57.3768 59.2428 57.9896 60.1648 58.4235C61.0868 58.8574 62.1987 59.0635 63.5003 59.0418C65.4094 59.0418 67.0148 58.5049 68.3165 57.431C69.6181 56.3571 70.3883 54.844 70.6269 52.8915H69.9761C69.6941 54.7355 68.9727 56.1185 67.8121 57.0405C66.6514 57.9625 65.1925 58.4235 63.4352 58.4235C62.2421 58.4235 61.2333 58.2174 60.4089 57.8052C59.5845 57.393 58.912 56.829 58.3913 56.1131C57.8706 55.3972 57.4856 54.5565 57.2361 53.5911C56.9866 52.6257 56.851 51.579 56.8293 50.4508ZM70.1713 49.8H56.8293C56.8944 48.6285 57.1113 47.5764 57.4802 46.6435C57.849 45.7106 58.3316 44.9134 58.9282 44.2517C59.5248 43.59 60.2191 43.0856 61.0109 42.7385C61.8027 42.3914 62.6542 42.2178 63.5654 42.2178C64.6501 42.2178 65.6047 42.4185 66.4291 42.8199C67.2534 43.2212 67.9422 43.769 68.4954 44.4632C69.0487 45.1574 69.4663 45.9655 69.7483 46.8876C70.0303 47.8096 70.1713 48.7804 70.1713 49.8ZM84.3269 46.9038H84.9777C84.9777 45.0381 84.4354 43.6822 83.3506 42.8361C82.2659 41.9901 80.7907 41.567 78.925 41.567C77.8837 41.567 77.005 41.6972 76.2891 41.9575C75.5732 42.2179 74.9875 42.5541 74.5319 42.9663C74.0763 43.3785 73.7509 43.8341 73.5556 44.333C73.3604 44.832 73.2628 45.3093 73.2628 45.7649C73.2628 46.676 73.4255 47.4028 73.7509 47.9452C74.0763 48.4875 74.5861 48.9105 75.2803 49.2143C75.7576 49.4312 76.3 49.6265 76.9074 49.8C77.5149 49.9736 78.2199 50.158 79.0226 50.3532C79.7385 50.5268 80.4436 50.7003 81.1378 50.8739C81.832 51.0474 82.4449 51.2807 82.9764 51.5735C83.5079 51.8664 83.9418 52.2406 84.2781 52.6962C84.6143 53.1518 84.7825 53.7484 84.7825 54.486C84.7825 55.2019 84.6143 55.8093 84.2781 56.3083C83.9418 56.8073 83.5133 57.2141 82.9927 57.5286C82.472 57.8432 81.8917 58.071 81.2517 58.212C80.6117 58.353 79.988 58.4235 79.3806 58.4235C77.4064 58.4235 75.8932 57.9842 74.841 57.1056C73.7889 56.227 73.2628 54.844 73.2628 52.9565H72.6119C72.6119 55.0609 73.1814 56.6012 74.3204 57.5774C75.4593 58.5537 77.146 59.0418 79.3806 59.0418C80.0965 59.0418 80.8178 58.9604 81.5446 58.7977C82.2713 58.635 82.9222 58.3693 83.4971 58.0005C84.072 57.6317 84.5384 57.1544 84.8964 56.5686C85.2543 55.9829 85.4333 55.267 85.4333 54.4209C85.4333 53.6182 85.276 52.9674 84.9614 52.4684C84.6469 51.9694 84.2347 51.5573 83.7249 51.2318C83.215 50.9064 82.6401 50.6515 82.0002 50.4671C81.3602 50.2827 80.7148 50.1037 80.0639 49.9302C79.1528 49.6915 78.3555 49.4854 77.6721 49.3119C76.9888 49.1383 76.3542 48.9322 75.7685 48.6936C75.2044 48.455 74.7543 48.1133 74.418 47.6685C74.0817 47.2238 73.9136 46.5893 73.9136 45.7649C73.9136 45.613 73.957 45.3418 74.0438 44.9513C74.1305 44.5608 74.3366 44.1649 74.6621 43.7636C74.9875 43.3622 75.4864 43.0043 76.159 42.6897C76.8315 42.3751 77.7535 42.2178 78.925 42.2178C79.7277 42.2178 80.4599 42.3046 81.1215 42.4782C81.7832 42.6517 82.3527 42.9283 82.83 43.308C83.3073 43.6876 83.676 44.1703 83.9364 44.7561C84.1967 45.3418 84.3269 46.0577 84.3269 46.9038ZM99.3936 46.9038H100.044C100.044 45.0381 99.5021 43.6822 98.4173 42.8361C97.3326 41.9901 95.8574 41.567 93.9917 41.567C92.9504 41.567 92.0718 41.6972 91.3558 41.9575C90.6399 42.2179 90.0542 42.5541 89.5986 42.9663C89.143 43.3785 88.8176 43.8341 88.6224 44.333C88.4271 44.832 88.3295 45.3093 88.3295 45.7649C88.3295 46.676 88.4922 47.4028 88.8176 47.9452C89.143 48.4875 89.6528 48.9105 90.3471 49.2143C90.8243 49.4312 91.3667 49.6265 91.9741 49.8C92.5816 49.9736 93.2866 50.158 94.0893 50.3532C94.8052 50.5268 95.5103 50.7003 96.2045 50.8739C96.8988 51.0474 97.5116 51.2807 98.0431 51.5735C98.5746 51.8664 99.0085 52.2406 99.3448 52.6962C99.681 53.1518 99.8492 53.7484 99.8492 54.486C99.8492 55.2019 99.681 55.8093 99.3448 56.3083C99.0085 56.8073 98.5801 57.2141 98.0594 57.5286C97.5387 57.8432 96.9584 58.071 96.3184 58.212C95.6784 58.353 95.0547 58.4235 94.4473 58.4235C92.4731 58.4235 90.9599 57.9842 89.9077 57.1056C88.8556 56.227 88.3295 54.844 88.3295 52.9565H87.6786C87.6786 55.0609 88.2481 56.6012 89.3871 57.5774C90.526 58.5537 92.2128 59.0418 94.4473 59.0418C95.1632 59.0418 95.8845 58.9604 96.6113 58.7977C97.3381 58.635 97.9889 58.3693 98.5638 58.0005C99.1387 57.6317 99.6051 57.1544 99.9631 56.5686C100.321 55.9829 100.5 55.267 100.5 54.4209C100.5 53.6182 100.343 52.9674 100.028 52.4684C99.7136 51.9694 99.3014 51.5573 98.7916 51.2318C98.2818 50.9064 97.7069 50.6515 97.0669 50.4671C96.4269 50.2827 95.7815 50.1037 95.1307 49.9302C94.2195 49.6915 93.4222 49.4854 92.7389 49.3119C92.0555 49.1383 91.4209 48.9322 90.8352 48.6936C90.2711 48.455 89.821 48.1133 89.4847 47.6685C89.1484 47.2238 88.9803 46.5893 88.9803 45.7649C88.9803 45.613 89.0237 45.3418 89.1105 44.9513C89.1973 44.5608 89.4034 44.1649 89.7288 43.7636C90.0542 43.3622 90.5532 43.0043 91.2257 42.6897C91.8982 42.3751 92.8202 42.2178 93.9917 42.2178C94.7944 42.2178 95.5266 42.3046 96.1883 42.4782C96.8499 42.6517 97.4194 42.9283 97.8967 43.308C98.374 43.6876 98.7428 44.1703 99.0031 44.7561C99.2634 45.3418 99.3936 46.0577 99.3936 46.9038Z" fill="#222222"/>
</g>
</g>
<defs>
<clipPath id="clip0_144_454">
<rect width="100" height="100" fill="white" transform="translate(0.5)"/>
</clipPath>
</defs>
</svg>

<svg xmlns="http://www.w3.org/2000/svg" width="101" height="100" fill="none">
  <g clip-path="url(#a)">
    <path fill="#222" d="M1.15 58.033v-11.13h13.896v-.65H1.151V36.1h14.774v-.65H.5v23.234h15.555v-.651H1.15Zm27.433-16.075-5.76 7.582-5.63-7.582h-.845l6.085 8.07-6.671 8.656h.781l6.28-8.168 6.314 8.168h.813l-6.703-8.656 6.117-8.07h-.78Zm3.32 22.453V53.998h.065c.39 1.519 1.16 2.739 2.31 3.66 1.15.923 2.614 1.384 4.393 1.384 1.15 0 2.17-.233 3.06-.7a6.509 6.509 0 0 0 2.228-1.904c.597-.802 1.052-1.735 1.367-2.798a11.75 11.75 0 0 0 .472-3.352c0-1.258-.163-2.419-.488-3.482-.326-1.063-.798-1.985-1.416-2.766a6.511 6.511 0 0 0-2.245-1.822c-.879-.434-1.871-.651-2.978-.651-.846 0-1.632.125-2.36.374A6.316 6.316 0 0 0 34.377 43a7.164 7.164 0 0 0-1.465 1.61 7.415 7.415 0 0 0-.943 2.035h-.066v-4.686h-.65V64.41h.65Zm6.768-5.988c-2.04 0-3.677-.7-4.914-2.098-1.236-1.4-1.854-3.412-1.854-6.037 0-1.085.151-2.115.455-3.091a8.005 8.005 0 0 1 1.318-2.571 6.33 6.33 0 0 1 2.131-1.757c.847-.434 1.801-.651 2.864-.651 1.085 0 2.034.217 2.848.65a5.772 5.772 0 0 1 2.017 1.774 8.253 8.253 0 0 1 1.204 2.571c.271.965.407 1.99.407 3.075 0 .976-.125 1.947-.374 2.913a8.327 8.327 0 0 1-1.156 2.603c-.52.77-1.187 1.4-2 1.887-.814.488-1.796.732-2.946.732Zm10.706.26v-9.469c0-.91.13-1.8.39-2.668a6.539 6.539 0 0 1 1.205-2.294 5.643 5.643 0 0 1 2.066-1.562c.836-.38 1.828-.537 2.978-.472v-.651c-.998-.022-1.871.087-2.62.325-.748.24-1.394.564-1.936.977a4.99 4.99 0 0 0-1.302 1.448 6.475 6.475 0 0 0-.716 1.773h-.065v-4.133h-.65v16.727h.65Zm7.452-8.232h13.993c.043-1.15-.07-2.256-.341-3.32a8.258 8.258 0 0 0-1.302-2.83 6.625 6.625 0 0 0-2.31-1.986c-.944-.498-2.067-.748-3.369-.748-.932 0-1.844.195-2.733.586-.89.39-1.67.96-2.343 1.708-.673.749-1.215 1.665-1.627 2.75-.412 1.085-.618 2.321-.618 3.71 0 1.236.14 2.392.422 3.465.283 1.074.716 2.007 1.302 2.799a5.871 5.871 0 0 0 2.262 1.838c.922.434 2.034.64 3.335.619 1.91 0 3.515-.537 4.817-1.611 1.301-1.074 2.071-2.587 2.31-4.54h-.65c-.283 1.845-1.004 3.227-2.165 4.15-1.16.922-2.62 1.383-4.377 1.383-1.193 0-2.202-.207-3.026-.619a5.482 5.482 0 0 1-2.018-1.692c-.52-.716-.905-1.556-1.155-2.522a13.574 13.574 0 0 1-.407-3.14Zm13.342-.651H56.83c.065-1.171.282-2.224.651-3.156.369-.933.852-1.73 1.448-2.392a6.052 6.052 0 0 1 2.083-1.514 6.292 6.292 0 0 1 2.554-.52c1.085 0 2.04.2 2.864.602.824.401 1.513.949 2.066 1.643.554.694.971 1.502 1.253 2.425.282.922.423 1.892.423 2.912Zm14.156-2.896h.65c0-1.866-.542-3.222-1.626-4.068-1.085-.846-2.56-1.269-4.426-1.269-1.041 0-1.92.13-2.636.39-.716.26-1.302.597-1.757 1.01-.456.412-.781.867-.976 1.366a3.928 3.928 0 0 0-.293 1.432c0 .911.162 1.638.488 2.18.325.542.835.965 1.53 1.27.477.216 1.019.411 1.626.585.608.174 1.313.358 2.116.553.716.174 1.42.347 2.115.52a7.635 7.635 0 0 1 1.838.7c.532.293.966.668 1.302 1.123.336.456.504 1.052.504 1.79 0 .716-.168 1.323-.504 1.822a4.066 4.066 0 0 1-1.285 1.22 5.72 5.72 0 0 1-1.741.684 8.685 8.685 0 0 1-1.871.211c-1.975 0-3.488-.439-4.54-1.317-1.052-.879-1.578-2.262-1.578-4.15h-.651c0 2.105.57 3.645 1.708 4.621 1.14.977 2.826 1.465 5.06 1.465.717 0 1.438-.082 2.165-.244A6.017 6.017 0 0 0 83.497 58a4.413 4.413 0 0 0 1.4-1.432c.357-.586.536-1.302.536-2.148 0-.803-.157-1.454-.472-1.953a3.958 3.958 0 0 0-1.236-1.236A6.564 6.564 0 0 0 82 50.467c-.64-.184-1.285-.363-1.936-.537a329.83 329.83 0 0 0-2.392-.618 14.525 14.525 0 0 1-1.903-.618 3.228 3.228 0 0 1-1.351-1.026c-.336-.444-.504-1.079-.504-1.903 0-.152.043-.423.13-.814.087-.39.293-.786.618-1.187.325-.402.824-.76 1.497-1.074.672-.315 1.594-.472 2.766-.472a8.65 8.65 0 0 1 2.197.26c.661.174 1.23.45 1.708.83.477.38.846.862 1.106 1.448.26.586.39 1.302.39 2.148Zm15.067 0h.65c0-1.866-.542-3.222-1.627-4.068-1.084-.846-2.56-1.269-4.425-1.269-1.042 0-1.92.13-2.636.39-.716.26-1.302.597-1.757 1.01-.456.412-.781.867-.977 1.366a3.926 3.926 0 0 0-.293 1.432c0 .911.163 1.638.489 2.18.325.542.835.965 1.53 1.27.476.216 1.019.411 1.626.585.608.174 1.313.358 2.115.553.716.174 1.421.347 2.115.52a7.634 7.634 0 0 1 1.84.7c.53.293.965.668 1.3 1.123.337.456.505 1.052.505 1.79 0 .716-.168 1.323-.504 1.822a4.064 4.064 0 0 1-1.286 1.22 5.72 5.72 0 0 1-1.74.684 8.685 8.685 0 0 1-1.872.211c-1.974 0-3.487-.439-4.54-1.317-1.051-.879-1.578-2.262-1.578-4.15h-.65c0 2.105.57 3.645 1.708 4.621 1.139.977 2.826 1.465 5.06 1.465.716 0 1.438-.082 2.164-.244A6.016 6.016 0 0 0 98.564 58a4.413 4.413 0 0 0 1.4-1.432c.357-.586.536-1.302.536-2.148 0-.803-.157-1.454-.472-1.953a3.956 3.956 0 0 0-1.236-1.236 6.56 6.56 0 0 0-1.725-.765c-.64-.184-1.285-.363-1.936-.537a332.54 332.54 0 0 0-2.392-.618 14.522 14.522 0 0 1-1.904-.618 3.228 3.228 0 0 1-1.35-1.026c-.337-.444-.505-1.079-.505-1.903 0-.152.044-.423.13-.814.087-.39.293-.786.619-1.187.325-.402.824-.76 1.497-1.074.672-.315 1.594-.472 2.766-.472.802 0 1.535.087 2.196.26.662.174 1.231.45 1.709.83.477.38.846.862 1.106 1.448.26.586.39 1.302.39 2.148Z"/>
  </g>
  <defs>
    <clipPath id="a">
      <path fill="#fff" d="M.5 0h100v100H.5z"/>
    </clipPath>
  </defs>
</svg>
